!!!COM: Bohuslav (Jan) Martinů
!!!OTL: [T476_Mau-w76p22h1m6-13]
**kern	**dynam	**kern	**dynam	**kern	**dynam	**kern	**dynam
*grp:A	*grp:A	*grp:B	*grp:B	*grp:B	*grp:B	*grp:B	*grp:B
*part3	*part3	*part3	*part3	*part2	*part2	*part1	*part1
*staff4	*staff4	*staff3	*staff3	*staff2	*staff2	*staff1	*staff1
*I"Piano	*I"Piano	*I"Piano	*I"Piano	*I"Violoncello	*I"Violoncello	*I"Flute	*I"Flute
*I'Pno.	*	*	*	*I'Vc.	*	*I'Fl.	*
*clefF4	*	*clefG2	*	*clefF4	*	*clefG2	*
*k[]	*	*k[]	*	*k[]	*	*k[]	*
*C:	*	*C:	*	*C:	*	*C:	*
*M2/4	*	*M2/4	*	*M2/4	*	*M2/4	*
=1	=1	=1	=1	=1	=1	=1	=1
!	!	!	!LO:DY:ed=brack	!	!LO:DY:ed=brack	!	!LO:DY:ed=brack
8F'	.	8r	mf	(16cLL	f	(16cccLL	f
.	.	.	.	16AJJ	.	16aaJJ	.
8r	.	(16ddLL	.	4B-X)	.	4bb-X)	.
.	.	16ee-XJJ	.	.	.	.	.
8r	.	16ffLL	.	.	.	.	.
.	.	16ee-	.	.	.	.	.
(16BB-XLL	.	16dd	.	(8F	.	(8ff	.
16DJJ)	.	16ccJJ	.	.	.	.	.
=2	=2	=2	=2	=2	=2	=2	=2
8F'	.	16ddLL	.	8B-X'L)	.	8bb-X'L)	.
.	.	16ee-X	.	.	.	.	.
8r	.	16ff	.	(16cL	.	(16cccL	.
.	.	16ee-JJ	.	16AJJ	.	16aaJJ	.
8r	.	16ddLL	.	4B-)	.	4bb-)	.
.	.	16cc	.	.	.	.	.
(16BB-XLL	.	16dd	.	.	.	.	.
16DJJ)	.	16ee-JJ	.	.	.	.	.
=3	=3	=3	=3	=3	=3	=3	=3
8F'	.	16ffLL	.	8F'L	.	8ff'L	.
.	.	16ee-X	.	.	.	.	.
8r	.	16dd	.	8B-X'J	.	8bb-X'J	.
.	.	16ccJJ	.	.	.	.	.
8r	.	16ddLL	.	(16cLL	.	(16cccLL	.
.	.	16ee-	.	16AJ	.	16aaJ	.
(16BB-XLL	.	16ff	.	[8B-J)	.	[8bb-J)	.
16DJJ)	.	16ee-JJ	.	.	.	.	.
=4	=4	=4	=4	=4	=4	=4	=4
8F'	.	16ddLL	.	8B-L]	.	8bb-L]	.
.	.	16cc	.	.	.	.	.
8r	.	16b-X	.	8d'J	.	8ddd'J	.
.	.	16aJJ	.	.	.	.	.
8r	.	8b-')	.	4f~	.	4fff~	.
(16B-XLL	.	8r	.	.	.	.	.
16dJJ	.	.	.	.	.	.	.
=5	=5	=5	=5	=5	=5	=5	=5
8f')	.	8dd'L	.	8r	.	(4fff	f
8r	.	(8fJ	f	16B-X'LL	mf	.	.
.	.	.	.	16c'JJ	.	.	.
8r	.	8b-X'L)	.	16d'LL	.	8ddd'L)	.
.	.	.	.	16c'	.	.	.
(16E-XLL	mf	8dd'J	.	16B-'	.	8fff'J	.
16GJJ	.	.	.	16A'JJ	.	.	.
=6	=6	=6	=6	=6	=6	=6	=6
8B-X')	.	(16ee-XLL	.	16B-X'LL	.	(16gggLL	.
.	.	16ccJJ	.	16c'	.	16eee-XJJ	.
8r	.	4dd)	.	16d'	.	4fff)	.
.	.	.	.	16c'JJ	.	.	.
8r	.	.	.	16B-'LL	.	.	.
.	.	.	.	16A'	.	.	.
(16E-XLL	.	(8f	.	16B-'	.	(8ddd	.
16GJJ	.	.	.	16c'JJ	.	.	.
=7	=7	=7	=7	=7	=7	=7	=7
8B-X')	.	8dd'L)	.	16d'LL	.	8fffL)	.
.	.	.	.	16c'	.	.	.
8r	.	(16ee-XL	.	16B-X'	.	(16gggL	.
.	.	16ccJJ	.	16A'JJ	.	16eee-XJJ	.
8r	.	4dd)	.	16B-'LL	.	4fff)	.
.	.	.	.	16c'	.	.	.
(16E-XLL	.	.	.	16d'	.	.	.
16GJJ	.	.	.	16c'JJ	.	.	.
=8	=8	=8	=8	=8	=8	=8	=8
8B-X')	.	8f'L	.	16B-X'LL	.	8ddd'L	.
.	.	.	.	16A'	.	.	.
8r	.	8dd'J	.	16B-'	.	8fff'J	.
.	.	.	.	16c'JJ	.	.	.
8r	.	(16ee-XLL	.	16d'LL	.	(16gggLL	.
.	.	16ccJ	.	16c'	.	16eee-XJ	.
(16E-XLL	.	[8ddJ)	.	16B-'	.	[8fffJ)	.
16GJJ)	.	.	.	16A'JJ	.	.	.
=	=	=	=	=	=	=	=
*-	*-	*-	*-	*-	*-	*-	*-
!!!system-decoration: s1,s2[({(s3,s4)})]
